X:187
T: Tennap voltam zabaratni
O: Barakospatak, 1963
Q:"Tempo guisto, ma poco rubato" 1/4=84
M:2/4
L:1/8
K:F
ggdd | fdcB |
f(d/c/)cc | d2 g2 | 
Bccc/c/ | fdcB | 
dcc(B/A/) | G G |

